svg/fluentui-system-icons/ic_fluent_heart_pulse_24_filled.svg

<svg width="24" height="24" viewBox="0 0 24 24" fill="none" xmlns="http://www.w3.org/2000/svg">
<path d="M12.8199 5.57912L11.9992 6.40163L11.1759 5.57838C9.07688 3.47931 5.67361 3.47931 3.57455 5.57838C2.10768 7.04524 1.66589 9.149 2.24916 10.9995H5.7493L7.16826 8.00097C7.45256 7.40017 8.05268 7.0123 8.71723 6.99982C9.38178 6.98734 9.99604 7.35242 10.3027 7.94211L12.2826 11.7494L13.8601 9.68648C14.1789 9.26958 14.668 9.01778 15.1925 9.00047C15.717 8.98315 16.2217 9.20217 16.5673 9.59713L17.7943 10.9995H21.7539C22.3385 9.14844 21.8988 7.0473 20.4306 5.57912C18.3277 3.47623 14.9228 3.47623 12.8199 5.57912ZM11.4699 21.0751L4.89428 14.4995H6.85723C7.53375 14.4995 8.14968 14.1096 8.43906 13.4981L8.82397 12.6846L10.4476 15.8069C10.7238 16.338 11.2524 16.6911 11.8488 16.7429C12.4452 16.7948 13.0267 16.5381 13.3904 16.0626L15.3414 13.5112L15.6832 13.9019C16.0155 14.2817 16.4956 14.4995 17.0002 14.4995H19.1101L12.5306 21.0751C12.2377 21.368 11.7628 21.368 11.4699 21.0751ZM9.42082 8.4141C9.29247 8.15739 9.02887 7.99645 8.74188 7.99956C8.45489 8.00266 8.19484 8.16928 8.07207 8.42871L6.38232 11.9995H2.75C2.33579 11.9995 2 12.3353 2 12.7495C2 13.1637 2.33579 13.4995 2.75 13.4995H6.85714C7.14708 13.4995 7.41105 13.3324 7.53507 13.0703L8.76856 10.4637L11.3292 15.5849C11.4465 15.8196 11.6779 15.9759 11.9394 15.9971C12.2009 16.0183 12.4544 15.9013 12.608 15.6886L15.3062 11.9527L16.4356 13.2434C16.578 13.4062 16.7837 13.4995 17 13.4995H21.25C21.6642 13.4995 22 13.1637 22 12.7495C22 12.3353 21.6642 11.9995 21.25 11.9995H17.3403L15.8144 10.2556C15.664 10.0837 15.4433 9.98967 15.215 10.0003C14.9867 10.011 14.7758 10.1251 14.642 10.3104L12.117 13.8065L9.42082 8.4141Z" fill="#212121"/>
</svg>

<svg xmlns="http://www.w3.org/2000/svg" width="24" height="24"><path d="m12.82 5.58-.82.822-.824-.824A5.375 5.375 0 0 0 2.249 11h3.5l1.42-2.998a1.75 1.75 0 0 1 3.134-.059l1.98 3.807 1.577-2.063a1.75 1.75 0 0 1 2.707-.089L17.794 11h3.96a5.38 5.38 0 0 0-8.934-5.42Zm-1.35 15.495L4.894 14.5h1.963a1.75 1.75 0 0 0 1.582-1.002l.385-.813 1.624 3.122a1.75 1.75 0 0 0 2.942.256l1.951-2.552.342.39c.332.38.813.598 1.317.598h2.11l-6.58 6.576a.75.75 0 0 1-1.06 0ZM9.42 8.415a.75.75 0 0 0-1.348.014l-1.69 3.57H2.75a.75.75 0 0 0 0 1.5h4.107a.75.75 0 0 0 .678-.429l1.234-2.606 2.56 5.12a.75.75 0 0 0 1.279.105l2.698-3.736 1.13 1.29A.75.75 0 0 0 17 13.5h4.25a.75.75 0 0 0 0-1.5h-3.91l-1.526-1.743a.75.75 0 0 0-1.172.054l-2.525 3.496-2.696-5.392Z"/></svg>
